X: 21113
M: 2/4
L: 1/16
K: A
|:\
c2e2 A4 | c2e2 A4 |\
f2df a2f2 | f2e2 e4 |\
c2e2 A4 | c2e2 A4 |\
|:\
E2EF G2GA | B2Bc d4 |\
E2E2 A2AB | c2cd e4 |\
c2e2 A4 | c2e2 A4 |\


